remix/Development/terminal-box-fill.svg

<svg viewBox="0 0 24 24" fill="currentColor" xmlns="http://www.w3.org/2000/svg"><path d="M3 3H21C21.5523 3 22 3.44772 22 4V20C22 20.5523 21.5523 21 21 21H3C2.44772 21 2 20.5523 2 20V4C2 3.44772 2.44772 3 3 3ZM12 15V17H18V15H12ZM8.41421 12L5.58579 14.8284L7 16.2426L11.2426 12L7 7.75736L5.58579 9.17157L8.41421 12Z"/></svg>

<svg viewBox="0 0 24 24" xmlns="http://www.w3.org/2000/svg"><path fill="none" d="M0 0h24v24H0Z"/><path d="M3 3h18v0c.55 0 1 .44 1 1v16 0c0 .55-.45 1-1 1H3v0c-.56 0-1-.45-1-1V4v0c0-.56.44-1 1-1Zm9 12v2h6v-2h-6Zm-3.59-3l-2.83 2.82 1.41 1.41 4.24-4.25 -4.25-4.243 -1.42 1.41 2.82 2.82Z"/></svg>
